X: 103
T:Dydd Llun yn y Bore
M:6/8
L:1/8
Q:130
S:Cadw Twmpath Collection
R:Jig
A:Wales
Z:brian_martin12345@yahoo.com
K:D
D/F/|ABA AFA|d2ef2f|ecA ABG|G3F2D/F/|!
ABA AFA|d2ef2f|ecA ABc|d3d2:||!
d/e/|f2f def|g2ge2e|ded dBG|G3F2D/F/|!
ABA AFA|d2ef2f|ecA ABc|d3d2:||
